src/_includes/transcript.svg

<?xml version="1.0" standalone="no"?>
<!DOCTYPE svg PUBLIC "-//W3C//DTD SVG 1.0//EN" "http://www.w3.org/TR/2001/REC-SVG-20010904/DTD/svg10.dtd">
<svg xmlns="http://www.w3.org/2000/svg" xmlns:xlink="http://www.w3.org/1999/xlink" id="body_1" width="30" height="30">

<g transform="matrix(0.042857148 0 0 0.042857148 0 0)">
	<g>
        <path d="M548.33 140L151.67001 140C 145.22472 140 140.00201 145.2227 140.00201 151.668L140.00201 151.668L140.00201 384.998C 140.00201 388.0918 141.23251 391.0605 143.42001 393.248C 145.60751 395.4355 148.57622 396.666 151.67001 396.666L151.67001 396.666L413.94 396.666L468.772 477.166C 470.8931 480.3769 474.4908 482.30658 478.3384 482.2988C 480.6861 482.31442 482.9751 481.58005 484.8736 480.1972C 487.4595 478.4472 489.2369 475.7363 489.8072 472.66602C 490.3775 469.5957 489.69 466.4277 487.90488 463.8652L487.90488 463.8652L429.57288 378.4672L429.57288 378.4633C 427.48306 375.2211 423.86588 373.2797 420.00647 373.33047L420.00647 373.33047L163.33646 373.33047L163.33646 163.33047L536.67645 163.33047L536.67645 373.33047L478.34045 373.33047C 471.89905 373.33047 466.67645 378.55707 466.67645 384.99847C 466.67645 391.43988 471.89914 396.66647 478.34045 396.66647L478.34045 396.66647L548.34045 396.66647C 551.43427 396.66647 554.40295 395.43597 556.59045 393.24847C 558.77795 391.06097 560.0085 388.0923 560.0085 384.99847L560.0085 384.99847L560.0085 151.66847C 560.0085 148.57468 558.77795 145.60597 556.59045 143.41847C 554.40295 141.23097 551.43427 140.00047 548.34045 140.00047L548.34045 140.00047L548.33 140z" stroke="none" fill="#000000" fill-rule="nonzero" />
        <path d="M210 233.33L490 233.33C 496.4414 233.33 501.668 228.1073 501.668 221.666C 501.668 215.2207 496.4414 209.998 490 209.998L490 209.998L210 209.998C 203.5586 209.998 198.332 215.2207 198.332 221.666C 198.332 228.1074 203.5586 233.33 210 233.33z" stroke="none" fill="#000000" fill-rule="nonzero" />
        <path d="M210 280L490 280C 496.4414 280 501.668 274.7773 501.668 268.332C 501.668 261.8906 496.4414 256.668 490 256.668L490 256.668L210 256.668C 203.5586 256.668 198.332 261.8907 198.332 268.332C 198.332 274.7773 203.5586 280 210 280z" stroke="none" fill="#000000" fill-rule="nonzero" />
        <path d="M210 326.67L490 326.67C 496.4414 326.67 501.668 321.44342 501.668 315.002C 501.668 308.5606 496.4414 303.334 490 303.334L490 303.334L210 303.334C 203.5586 303.334 198.332 308.5606 198.332 315.002C 198.332 321.44342 203.5586 326.67 210 326.67z" stroke="none" fill="#000000" fill-rule="nonzero" />
	</g>
</g>
</svg>

<?xml version="1.0" encoding="UTF-8"?>
<svg width="700pt" height="700pt" version="1.1" viewBox="0 0 700 700" xmlns="http://www.w3.org/2000/svg">
 <g>
  <path d="m548.33 140h-396.66c-6.4453 0-11.668 5.2227-11.668 11.668v233.33c0 3.0938 1.2305 6.0625 3.418 8.25s5.1562 3.418 8.25 3.418h262.27l54.832 80.5c2.1211 3.2109 5.7188 5.1406 9.5664 5.1328 2.3477 0.015625 4.6367-0.71875 6.5352-2.1016 2.5859-1.75 4.3633-4.4609 4.9336-7.5312 0.57031-3.0703-0.11719-6.2383-1.9023-8.8008l-58.332-85.398v-0.003906c-2.0898-3.2422-5.707-5.1836-9.5664-5.1328h-256.67v-210h373.34v210h-58.336c-6.4414 0-11.664 5.2266-11.664 11.668s5.2227 11.668 11.664 11.668h70c3.0938 0 6.0625-1.2305 8.25-3.418s3.418-5.1562 3.418-8.25v-233.33c0-3.0938-1.2305-6.0625-3.418-8.25s-5.1562-3.418-8.25-3.418z"/>
  <path d="m210 233.33h280c6.4414 0 11.668-5.2227 11.668-11.664 0-6.4453-5.2266-11.668-11.668-11.668h-280c-6.4414 0-11.668 5.2227-11.668 11.668 0 6.4414 5.2266 11.664 11.668 11.664z"/>
  <path d="m210 280h280c6.4414 0 11.668-5.2227 11.668-11.668 0-6.4414-5.2266-11.664-11.668-11.664h-280c-6.4414 0-11.668 5.2227-11.668 11.664 0 6.4453 5.2266 11.668 11.668 11.668z"/>
  <path d="m210 326.67h280c6.4414 0 11.668-5.2266 11.668-11.668s-5.2266-11.668-11.668-11.668h-280c-6.4414 0-11.668 5.2266-11.668 11.668s5.2266 11.668 11.668 11.668z"/>
 </g>
</svg>
